images/label-heart.svg

<svg xmlns="http://www.w3.org/2000/svg" width="148" height="148" viewBox="0 0 148 148">
    <g>
        <path fill="#3a91f5" d="M 74 0 C 33.131 0 0 33.131 0 74 C 0 114.869 33.131 148 74 148 C 114.869 148 148 114.869 148 74 C 148 33.131 114.869 0 74 0 z"/>
        <g>
            <path fill="#8bdefd" d="M 73.994141 0 L 20.726562 53.269531 C 14.752562 59.243531 14.752562 68.930297 20.726562 74.904297 C 26.701563 80.878297 36.387328 80.878297 42.361328 74.904297 L 108.6582 8.6074219 C 97.959203 2.9244219 86.107141 0 73.994141 0 z"/>
            <path fill="#57cbf5" d="M 119.58594 15.707031 L 36.146484 99.146484 C 26.065484 109.22748 25.253937 125.06717 33.710938 136.07617 C 41.662938 141.24817 50.669844 144.93523 60.339844 146.74023 C 66.018844 145.85723 71.478516 143.22852 75.853516 138.85352 L 147.67188 67.035156 C 145.72787 46.219156 135.16694 27.908031 119.58594 15.707031 z"/>
        </g>
        <g>
            <path fill="#d62d2d" d="M 74 112 L 61 125 L 87 125 L 74 112 z"/>
            <path fill="#b3efff" d="M 73.25 111 L 73.25 147.99609 C 73.75 148.00109 74.25 148.00209 74.75 147.99609 L 74.75 111 L 73.25 111 z"/>
            <g>
                <path fill="#f55460" d="M 55.759766 28.003906 C 54.759166 27.990035 53.748094 28.024 52.730469 28.109375 C 41.999469 29.010375 29.686453 36.145797 27.314453 53.466797 C 23.819453 78.976797 50.175109 101.22006 70.912109 111.28906 C 72.850109 112.23106 75.148891 112.23206 77.087891 111.28906 C 97.824891 101.21206 124.18155 78.982797 120.68555 53.466797 C 118.31255 36.145797 106.00053 29.010375 95.269531 28.109375 C 87.126531 27.423375 79.416 29.988453 74 34.689453 C 69.261 30.576078 62.763963 28.101004 55.759766 28.003906 z"/>
                <path fill="#d62d2d" d="M 92.691406 28 C 86.721527 27.994408 81.102625 29.720125 76.59375 32.71875 C 102.58275 55.46375 81.520203 88.536125 58.408203 104.07812 C 62.614203 106.90013 66.870109 109.32606 70.912109 111.28906 C 72.850109 112.23106 75.148891 112.23206 77.087891 111.28906 C 97.824891 101.21206 124.18155 78.982797 120.68555 53.466797 C 118.31255 36.145797 106.00053 29.010375 95.269531 28.109375 C 94.404656 28.036625 93.544246 28.000799 92.691406 28 z"/>
            </g>
        </g>
    </g>
</svg>

<svg xmlns="http://www.w3.org/2000/svg" width="148" height="148"><path fill="#3a91f5" d="M74 0C33.131 0 0 33.131 0 74s33.131 74 74 74 74-33.131 74-74S114.869 0 74 0z"/><path fill="#8bdefd" d="M73.994 0L20.727 53.27c-5.974 5.974-5.974 15.66 0 21.634 5.975 5.974 15.66 5.974 21.634 0l66.297-66.297C97.96 2.924 86.108 0 73.994 0z"/><path fill="#57cbf5" d="M119.586 15.707l-83.44 83.44c-10.08 10.08-10.892 25.92-2.435 36.93A73.56 73.56 0 0060.34 146.74a27.944 27.944 0 0015.514-7.886l71.818-71.819c-1.944-20.816-12.505-39.127-28.086-51.328z"/><g><path fill="#d62d2d" d="M74 112l-13 13h26l-13-13z"/><path fill="#b3efff" d="M73.25 111v36.996c.5.005 1 .006 1.5 0V111h-1.5z"/><path fill="#f55460" d="M55.76 28.004c-1-.014-2.012.02-3.03.105-10.73.901-23.044 8.037-25.416 25.358-3.495 25.51 22.861 47.753 43.598 57.822a7.098 7.098 0 006.176 0c20.737-10.077 47.094-32.306 43.598-57.822C118.313 36.146 106 29.01 95.27 28.109c-8.143-.686-15.854 1.88-21.27 6.58-4.739-4.113-11.236-6.588-18.24-6.685z"/><path fill="#d62d2d" d="M92.691 28c-5.97-.006-11.588 1.72-16.097 4.719 25.989 22.745 4.926 55.817-18.186 71.36a104.906 104.906 0 0012.504 7.21 7.098 7.098 0 006.176 0c20.737-10.077 47.094-32.306 43.598-57.822C118.313 36.146 106 29.01 95.27 28.109A31.11 31.11 0 0092.69 28z"/></g></svg>
